src/16/actions/crosshairs.svg

<svg xmlns="http://www.w3.org/2000/svg" width="16" height="16" viewBox="0 0 16 16">
 <defs>
  <style id="current-color-scheme" type="text/css">
   .ColorScheme-Text { color:#565656; } .ColorScheme-Highlight { color:#5294e2; }
  </style>
 </defs>
 <path style="fill:currentColor" class="ColorScheme-Text" d="M 7 1 L 7 2.0898438 A 6 6 0 0 0 2.0859375 7 L 1 7 L 1 9 L 2.0898438 9 A 6 6 0 0 0 7 13.914062 L 7 15 L 9 15 L 9 13.910156 A 6 6 0 0 0 13.914062 9 L 15 9 L 15 7 L 13.910156 7 A 6 6 0 0 0 9 2.0859375 L 9 1 L 7 1 z M 7 4.1308594 L 7 7 L 4.1328125 7 A 4 4 0 0 1 7 4.1308594 z M 9 4.1328125 A 4 4 0 0 1 11.869141 7 L 9 7 L 9 4.1328125 z M 4.1308594 9 L 7 9 L 7 11.867188 A 4 4 0 0 1 4.1308594 9 z M 9 9 L 11.867188 9 A 4 4 0 0 1 9 11.869141 L 9 9 z"/>
</svg>

<svg xmlns="http://www.w3.org/2000/svg" width="16" height="16"><defs><style id="current-color-scheme" type="text/css"></style></defs><path d="M7 1v1.09A6 6 0 0 0 2.086 7H1v2h1.09A6 6 0 0 0 7 13.914V15h2v-1.09A6 6 0 0 0 13.914 9H15V7h-1.09A6 6 0 0 0 9 2.086V1H7zm0 3.13V7H4.133A4 4 0 0 1 7 4.13zm2 .003A4 4 0 0 1 11.87 7H9V4.133zM4.13 9H7v2.867A4 4 0 0 1 4.13 9zM9 9h2.867A4 4 0 0 1 9 11.87V9z" fill="currentColor" color="#565656"/></svg>
